images_sukapura_svg/cmd/32/styleupdatebyexample.svg

<svg viewBox="0 0 32 32" xmlns="http://www.w3.org/2000/svg" xmlns:xlink="http://www.w3.org/1999/xlink"><filter id="a" color-interpolation-filters="sRGB" height="1.135959" width="1.153052" x="-.076526" y="-.067979"><feGaussianBlur stdDeviation=".44180839"/></filter><radialGradient id="b" cx="55.498295" cy="20.746534" gradientTransform="matrix(1 0 0 .72181261 0 7.10169)" gradientUnits="userSpaceOnUse" r="10.03901"><stop offset="0" stop-color="#ffc765"/><stop offset="1" stop-color="#ffa914"/></radialGradient><radialGradient id="c" cx="55.441967" cy="22.525862" gradientTransform="matrix(1.2258064 0 0 1.0478667 -12.519154 -1.07824)" gradientUnits="userSpaceOnUse" r="2.229184"><stop offset="0" stop-color="#ffe9c3"/><stop offset="1" stop-color="#ffe9c3" stop-opacity="0"/></radialGradient><path d="m16.443273 19.097309h-8.2217443l-1.673197 4.904198h-3.5483317l7.7169-21.0015082h3.317546l7.630356 21.0015082h-3.562756zm-7.2120564-2.928095h6.2167924l-3.043488-8.9717984h-.08654z" fill="#4b4b4f"/><g transform="matrix(.79893533 0 0 .79893533 -27.882846 5.714362)"><path d="m57.661017 18.305085 12.20339-12.0000003 1.118644-1.0169491c.535947-.4093238 1.138074-.6755092 2.338983-.6101695l.813559.6101695c.306849.6596707.152068 1.3286734.101695 2.0338983l-11.694915 16.7796611z" fill="#d6d6d6" stroke="#98989d" stroke-width="1.251666"/><path d="m59.389831 19.322034 12.813559-13.1186442.686441-.5338983.355932.3305085-12.122973 15.267452z" fill="#f9f9f9" filter="url(#a)"/><path d="m54.915254 19.525424c-2.355192 1.12312-2.986044 2.645733-4.067796 4.881356-1.280902 3.099136-3.365034 4.179849-6 5.898305 4.002224 2.208107 12.344829 3.382311 15.355932-1.016949 1.803572-2.317145 5.097789-5.637418 1.932203-8.237289-2.997587-2.267403-4.004437-2.954713-7.220339-1.525423z" fill="url(#b)" stroke="#f58b00" stroke-width="1.251666"/><path d="m49.395592 26.820763c-1.20494 1.428749-2.746668 2.309185-4.547936 3.483925 4.002224 2.208106 12.344366 3.383635 15.355469-1.015626-2.950168-3.198325-8.750083-1.802762-10.807533-2.468299z" fill="#0a84ff" stroke="#0040dd" stroke-width="1.251666"/><ellipse cx="55.441967" cy="22.525862" fill="url(#c)" rx="2.732548" ry="2.335888"/></g><path d="m21.028922 11.385933a6 6 0 0 0 3.470624 1.114522 6 6 0 0 0 5.99936-5.9993584 6 6 0 0 0 -1.113142-3.4720053l-1.444596 1.4445968a4 4 0 0 1 .557951 2.0274082 4 4 0 0 1 -3.999573 3.9995727 4 4 0 0 1 -2.027408-.5579521zm-1.934876-2.3077642 1.548177-1.5481774a4 4 0 0 1 -.14225-1.0288953 4 4 0 0 1 3.999573-3.9995728 4 4 0 0 1 1.028895.1422501l1.548177-1.5481771a6 6 0 0 0 -2.577072-.5938601 6 6 0 0 0 -5.999359 5.9993589 6 6 0 0 0 .593859 2.5770737z" fill="#0a84ff" stroke="#0070f5"/></svg>

<?xml version="1.0" encoding="UTF-8" standalone="no"?>
<svg
   xmlns:dc="http://purl.org/dc/elements/1.1/"
   xmlns:cc="http://creativecommons.org/ns#"
   xmlns:rdf="http://www.w3.org/1999/02/22-rdf-syntax-ns#"
   xmlns:svg="http://www.w3.org/2000/svg"
   xmlns="http://www.w3.org/2000/svg"
   xmlns:sodipodi="http://sodipodi.sourceforge.net/DTD/sodipodi-0.dtd"
   xmlns:inkscape="http://www.inkscape.org/namespaces/inkscape"
   viewBox="0 0 32 32"
   version="1.1"
   id="svg5509"
   sodipodi:docname="styleupdatebyexample.svg"
   inkscape:version="0.92.3 (2405546, 2018-03-11)">
  <metadata
     id="metadata5515">
    <rdf:RDF>
      <cc:Work
         rdf:about="">
        <dc:format>image/svg+xml</dc:format>
        <dc:type
           rdf:resource="http://purl.org/dc/dcmitype/StillImage" />
      </cc:Work>
    </rdf:RDF>
  </metadata>
  <defs
     id="defs5513" />
  <sodipodi:namedview
     pagecolor="#ffffff"
     bordercolor="#666666"
     borderopacity="1"
     objecttolerance="10"
     gridtolerance="10"
     guidetolerance="10"
     inkscape:pageopacity="0"
     inkscape:pageshadow="2"
     inkscape:window-width="1366"
     inkscape:window-height="716"
     id="namedview5511"
     showgrid="false"
     inkscape:zoom="7.375"
     inkscape:cx="-3.3220339"
     inkscape:cy="16"
     inkscape:window-x="-8"
     inkscape:window-y="-8"
     inkscape:window-maximized="1"
     inkscape:current-layer="svg5509" />
  <filter
     id="a"
     color-interpolation-filters="sRGB"
     height="1.135959"
     width="1.153052"
     x="-.076526"
     y="-.067979">
    <feGaussianBlur
       stdDeviation=".44180839"
       id="feGaussianBlur5480" />
  </filter>
  <radialGradient
     id="b"
     cx="55.498295"
     cy="20.746534"
     gradientTransform="matrix(1 0 0 .72181261 0 7.10169)"
     gradientUnits="userSpaceOnUse"
     r="10.03901">
    <stop
       offset="0"
       stop-color="#ffc765"
       id="stop5483" />
    <stop
       offset="1"
       stop-color="#ffa914"
       id="stop5485" />
  </radialGradient>
  <radialGradient
     id="c"
     cx="55.441967"
     cy="22.525862"
     gradientTransform="matrix(1.2258064 0 0 1.0478667 -12.519154 -1.07824)"
     gradientUnits="userSpaceOnUse"
     r="2.229184">
    <stop
       offset="0"
       stop-color="#ffe9c3"
       id="stop5488" />
    <stop
       offset="1"
       stop-color="#ffe9c3"
       stop-opacity="0"
       id="stop5490" />
  </radialGradient>
  <g
     aria-label="A"
     style="font-style:normal;font-weight:normal;font-size:29.54058266px;line-height:1.25;font-family:sans-serif;letter-spacing:0px;word-spacing:0px;fill:#4b4b4f;fill-opacity:1;stroke:none;stroke-width:0.73851454"
     id="text14271">
    <path
       inkscape:connector-curvature="0"
       d="M 16.443273,19.097309 H 8.2215287 l -1.673197,4.904198 H 3 L 10.7169,2.9999988 h 3.317546 L 21.664802,24.001507 H 18.102046 Z M 9.2312166,16.169214 H 15.448009 L 12.404521,7.1974156 h -0.08654 z"
       style="font-style:normal;font-variant:normal;font-weight:500;font-stretch:normal;font-family:Roboto;-inkscape-font-specification:'Roboto Medium';fill:#4b4b4f;fill-opacity:1;stroke-width:0.73851454"
       id="path1523" />
  </g>
  <g
     transform="matrix(.79893533 0 0 .79893533 -27.882846 5.714362)"
     id="g5505">
    <path
       d="m57.661017 18.305085 12.20339-12.0000003 1.118644-1.0169491c.535947-.4093238 1.138074-.6755092 2.338983-.6101695l.813559.6101695c.306849.6596707.152068 1.3286734.101695 2.0338983l-11.694915 16.7796611z"
       fill="#d6d6d6"
       stroke="#98989d"
       stroke-width="1.251666"
       id="path5495" />
    <path
       d="m59.389831 19.322034 12.813559-13.1186442.686441-.5338983.355932.3305085-12.122973 15.267452z"
       fill="#f9f9f9"
       filter="url(#a)"
       id="path5497" />
    <path
       d="m54.915254 19.525424c-2.355192 1.12312-2.986044 2.645733-4.067796 4.881356-1.280902 3.099136-3.365034 4.179849-6 5.898305 4.002224 2.208107 12.344829 3.382311 15.355932-1.016949 1.803572-2.317145 5.097789-5.637418 1.932203-8.237289-2.997587-2.267403-4.004437-2.954713-7.220339-1.525423z"
       fill="url(#b)"
       stroke="#f58b00"
       stroke-width="1.251666"
       id="path5499" />
    <path
       d="m49.395592 26.820763c-1.20494 1.428749-2.746668 2.309185-4.547936 3.483925 4.002224 2.208106 12.344366 3.383635 15.355469-1.015626-2.950168-3.198325-8.750083-1.802762-10.807533-2.468299z"
       fill="#0a84ff"
       stroke="#0040dd"
       stroke-width="1.251666"
       id="path5501" />
    <ellipse
       cx="55.441967"
       cy="22.525862"
       fill="url(#c)"
       rx="2.732548"
       ry="2.335888"
       id="ellipse5503" />
  </g>
  <path
     d="m21.028922 11.385933a6 6 0 0 0 3.470624 1.114522 6 6 0 0 0 5.99936-5.9993584 6 6 0 0 0 -1.113142-3.4720053l-1.444596 1.4445968a4 4 0 0 1 .557951 2.0274082 4 4 0 0 1 -3.999573 3.9995727 4 4 0 0 1 -2.027408-.5579521zm-1.934876-2.3077642 1.548177-1.5481774a4 4 0 0 1 -.14225-1.0288953 4 4 0 0 1 3.999573-3.9995728 4 4 0 0 1 1.028895.1422501l1.548177-1.5481771a6 6 0 0 0 -2.577072-.5938601 6 6 0 0 0 -5.999359 5.9993589 6 6 0 0 0 .593859 2.5770737z"
     fill="#0a84ff"
     stroke="#0070f5"
     id="path5507" />
</svg>
